X: 26
T:The Fermoy Lasses
M:4/4
L:1/8
S:Tommy Potts, Dublin (fiddle)
R:Reel
D:RTE broadcast, late 70's
N:As played
Z:Bernie Stocks
K:G
G E(3.E.E.E BE(3.E.E.E | ^cE(3.E.E.E dE(3.E.E.E | eE(3.E.E.E dE^cE | BFDF AB{d}BA |
GE~E2 CEB,E | GE~E2 BcBA | G2G-F- GBdB |AFDF AB{d}BA |
GE~E2 B,EGB eBdB ABFD | GE~E2 BEGE | FB,DF B,DFF |
GE~E2 B,ECE | GE~E2 BcBA | G2G-F- GBdB | AFDF AcBA ||
GABG dGBG | (3.G.G.GBd efgB | GABG (3.E.F.G DB, | CB,A,B, CDEF |
~G3A ~G3A | GABd efg2 | ~g3e ~d3B | AFDF AcBA |
GGBG dGBG | (3.G.G.GBd efgB | GABG dGBG | AF(3.F.F.F BFAF |
G2BG dGBG | (3.G.G.GBd efge | ~g3e ~d3B | AFDF AB{d}BA ||
<end>
<start>
